X: 51
T:Tongs By the Fire
R:Jig
M:6/8
L:1/8
Q:3/8=120
K:G
E/2F/2|GBd cAF|Gge dBG|cdc BdB|ABG FED|
GBd cAF|Gge dBG|cdc Bag|fef g2:|
f|gdB gdB|gfa gdB|gfg eag|fdd def|
gbg faf|(4efge def|gdB AGA|BGF G2:|
